icons/circle/src/actions/16/license.svg

<svg xmlns="http://www.w3.org/2000/svg" width="16" height="16" viewBox="0 0 16 16">
 <defs>
  <style id="current-color-scheme" type="text/css">
   .ColorScheme-Text { color:#363636; } .ColorScheme-Highlight { color:#5294e2; }
  </style>
 </defs>
 <path style="fill:currentColor" class="ColorScheme-Text" d="M 8 1.0039062 C 4.1340967 1.0039062 1 4.1380029 1 8.0039062 C 1 11.86981 4.1340967 15.003906 8 15.003906 C 11.865903 15.003906 15 11.86981 15 8.0039062 C 15 4.1380029 11.865903 1.0039062 8 1.0039062 z M 8 3.0039062 C 10.760931 3.0039062 13 5.2425753 13 8.0039062 C 13 10.764837 10.760931 13.003906 8 13.003906 C 5.238669 13.003906 3 10.764837 3 8.0039062 C 3 5.2425753 5.238669 3.0039062 8 3.0039062 z M 8 5.0039062 A 2.999925 2.999925 0 0 0 5 8.0039062 A 2.999925 2.999925 0 0 0 8 11.003906 A 2.999925 2.999925 0 0 0 10.396484 9.8027344 L 9.5976562 9.203125 A 1.99995 1.99995 0 0 1 8 10.003906 A 1.99995 1.99995 0 0 1 6 8.0039062 A 1.99995 1.99995 0 0 1 8 6.0039062 A 1.99995 1.99995 0 0 1 9.5996094 6.8046875 L 10.396484 6.2050781 A 2.999925 2.999925 0 0 0 8 5.0039062 z"/>
</svg>

<svg xmlns="http://www.w3.org/2000/svg" viewBox="0 0 16 16">
  <defs id="defs3051">
    <style type="text/css" id="current-color-scheme">
      .ColorScheme-Text {
        color:#363636;
      }
      </style>
  </defs>
 <path style="fill:currentColor;fill-opacity:1;stroke:none" 
     d="m8 2c-3.314 0-6 2.686-6 6 0 3.314 2.686 6 6 6 3.314 0 6-2.686 6-6 0-3.314-2.686-6-6-6m0 1c2.761 0 5 2.239 5 5 0 2.761-2.239 5-5 5-2.761 0-5-2.239-5-5 0-2.761 2.239-5 5-5m0 2c-1.657 0-3 1.343-3 3 0 1.657 1.343 3 3 3 .943-.001 1.831-.446 2.396-1.201l-.799-.6c-.377.503-.969.8-1.598.801-1.105 0-2-.895-2-2 0-1.105.895-2 2-2 .63 0 1.222.297 1.6.801l.797-.6c-.566-.755-1.453-1.2-2.396-1.201"
     class="ColorScheme-Text"
     />
</svg>
